img/headerServices/3.svg

<svg width="46" height="46" viewBox="0 0 46 46" fill="none" xmlns="http://www.w3.org/2000/svg">
<g clip-path="url(#clip0_5_289)">
<path d="M12.8947 10.1941C12.5306 10.1941 12.2355 10.4892 12.2355 10.8533V14.2151C12.2355 14.5791 12.5306 14.8743 12.8947 14.8743C13.2588 14.8743 13.5539 14.5791 13.5539 14.2151V10.8533C13.5539 10.4892 13.2588 10.1941 12.8947 10.1941Z" fill="#4D7B7D"/>
<path d="M20.4737 10.1941C20.1096 10.1941 19.8145 10.4892 19.8145 10.8533V11.5564C19.8145 11.9204 20.1096 12.2156 20.4737 12.2156C20.8378 12.2156 21.1329 11.9204 21.1329 11.5564V10.8533C21.1329 10.4892 20.8377 10.1941 20.4737 10.1941Z" fill="#4D7B7D"/>
<path d="M17.9474 10.1941C17.5833 10.1941 17.2882 10.4892 17.2882 10.8533V12.4426C17.2882 12.8066 17.5833 13.1018 17.9474 13.1018C18.3115 13.1018 18.6066 12.8066 18.6066 12.4426V10.8533C18.6066 10.4892 18.3115 10.1941 17.9474 10.1941Z" fill="#4D7B7D"/>
<path d="M15.4211 10.1941C15.057 10.1941 14.762 10.4892 14.762 10.8533V13.3289C14.762 13.6929 15.057 13.9881 15.4211 13.9881C15.7853 13.9881 16.0803 13.6929 16.0803 13.3289V10.8533C16.0803 10.4892 15.7852 10.1941 15.4211 10.1941Z" fill="#4D7B7D"/>
<path d="M32.4461 10.8533V14.2151C32.4461 14.5791 32.7411 14.8743 33.1053 14.8743C33.4694 14.8743 33.7644 14.5791 33.7644 14.2151V10.8533C33.7644 10.4892 33.4694 10.1941 33.1053 10.1941C32.7411 10.1941 32.4461 10.4892 32.4461 10.8533Z" fill="#4D7B7D"/>
<path d="M24.8671 10.8533V11.5564C24.8671 11.9204 25.1622 12.2156 25.5263 12.2156C25.8904 12.2156 26.1855 11.9204 26.1855 11.5564V10.8533C26.1855 10.4892 25.8904 10.1941 25.5263 10.1941C25.1622 10.1941 24.8671 10.4892 24.8671 10.8533Z" fill="#4D7B7D"/>
<path d="M27.3935 10.8533V12.4426C27.3935 12.8066 27.6885 13.1018 28.0526 13.1018C28.4168 13.1018 28.7118 12.8066 28.7118 12.4426V10.8533C28.7118 10.4892 28.4168 10.1941 28.0526 10.1941C27.6885 10.1941 27.3935 10.4892 27.3935 10.8533Z" fill="#4D7B7D"/>
<path d="M29.9198 10.8533V13.3289C29.9198 13.6929 30.2149 13.9881 30.579 13.9881C30.9431 13.9881 31.2382 13.6929 31.2382 13.3289V10.8533C31.2382 10.4892 30.9431 10.1941 30.579 10.1941C30.2149 10.1941 29.9198 10.4892 29.9198 10.8533Z" fill="#4D7B7D"/>
<path d="M43.9115 29.7208C42.5945 31.0161 40.4849 31.0167 39.1676 29.7207C38.4184 28.9835 37.2448 28.9835 36.4956 29.7207C36.0018 30.2065 35.3839 30.5221 34.7147 30.6397C34.9129 30.0527 37.947 21.0678 38.1296 20.527C38.3712 19.8113 38.0333 19.0397 37.3437 18.7321L36.2908 18.2624V14.7058C36.2908 14.3418 35.9958 14.0466 35.6316 14.0466C35.2675 14.0466 34.9724 14.3418 34.9724 14.7058V17.6743L26.1046 13.7184L23.7505 12.6683C23.7203 12.6549 23.6899 12.6422 23.6592 12.6304V8.56809H34.6794C34.841 8.56809 34.9724 8.69948 34.9724 8.86103V11.6296C34.9724 11.9937 35.2675 12.2888 35.6316 12.2888C35.9958 12.2888 36.2908 11.9937 36.2908 11.6296V8.86103C36.2908 7.97253 35.5679 7.24971 34.6794 7.24971H33.0057C33.0057 5.9302 33.0057 3.06116 33.0057 2.47281C33.0057 1.38498 32.1207 0.5 31.033 0.5H14.8088C13.7211 0.5 12.8361 1.38498 12.8361 2.47281V7.24971H11.3207C10.4323 7.24971 9.70936 7.97253 9.70936 8.86103V18.2624L8.65651 18.7321C7.96691 19.0397 7.62888 19.8111 7.87058 20.5269L11.2855 30.6396C10.6163 30.5221 9.99843 30.2064 9.50457 29.7205C8.75547 28.9833 7.58168 28.9833 6.83276 29.7205C5.51588 31.0161 3.40631 31.0166 2.08864 29.7208C1.81943 29.4558 1.42031 29.3789 1.07235 29.5248C0.724563 29.6706 0.5 30.0083 0.5 30.3856V43.2039C0.5 44.47 1.53 45.5 2.79608 45.5H21.4619C21.8261 45.5 22.1211 45.2049 22.1211 44.8408C22.1211 44.4768 21.8261 44.1816 21.4619 44.1816H2.79608C2.25695 44.1816 1.81837 43.743 1.81837 43.2039V37.8098C3.66251 39.0613 6.14052 38.8669 7.7572 37.2762C7.98774 37.0492 8.34915 37.0493 8.57969 37.2762C10.4098 39.077 13.342 39.0776 15.1729 37.2762C15.4035 37.0493 15.7647 37.0491 15.9955 37.2762C17.8257 39.077 20.758 39.0776 22.5887 37.2762C22.8194 37.0492 23.1806 37.0492 23.4113 37.2762C25.2414 39.077 28.1738 39.0776 30.0045 37.2762C30.2352 37.0492 30.5965 37.0493 30.827 37.2762C32.6571 39.077 35.5893 39.0776 37.4203 37.2762C37.6508 37.0493 38.0122 37.0491 38.2429 37.2762C39.8545 38.862 42.3344 39.0647 44.1815 37.8108V43.2038C44.1815 43.743 43.743 44.1815 43.2038 44.1815H24.5381C24.174 44.1815 23.879 44.4767 23.879 44.8407C23.879 45.2048 24.174 45.4999 24.5381 45.4999H43.2039C44.47 45.4999 45.5 44.4699 45.5 43.2038V30.3856C45.5 29.5573 44.4999 29.1422 43.9115 29.7208ZM14.1544 2.47281C14.1544 2.11202 14.4479 1.81837 14.8087 1.81837H31.0329C31.3937 1.81837 31.6872 2.11193 31.6872 2.47281V3.87486H14.1544V2.47281ZM14.1544 5.19323H31.6872V7.24971C30.9824 7.24971 14.9698 7.24971 14.1544 7.24971V5.19323ZM11.0276 8.86103C11.0276 8.69948 11.159 8.56809 11.3206 8.56809H22.3409V12.6304C22.3104 12.6421 22.2804 12.6546 22.2505 12.668C22.2502 12.6681 22.2497 12.6682 22.2494 12.6684L11.0276 17.6743V8.86103ZM9.11952 20.1052C9.09675 20.0378 9.1284 19.9652 9.19352 19.9361C9.53296 19.7847 22.4296 14.0316 22.7865 13.8724C22.7926 13.8697 22.799 13.8677 22.8053 13.8651C22.9193 13.8195 23.0456 13.8148 23.1617 13.8525C23.1792 13.8582 23.1965 13.8648 23.2134 13.8723C23.6426 14.0638 36.2028 19.6668 36.8065 19.9361C36.8713 19.9651 36.9033 20.0376 36.8805 20.1051L36.0071 22.6913L23.7505 17.2237C23.512 17.1173 23.2561 17.0641 23 17.0641C22.7439 17.0641 22.4878 17.1173 22.2493 17.2236L9.99281 22.6912L9.11952 20.1052ZM10.4164 23.946L22.7864 18.4278C22.9221 18.3674 23.0777 18.3672 23.2134 18.4278L35.5835 23.946L33.337 30.5985C32.7198 30.451 32.1712 30.1336 31.7517 29.7206C31.0014 28.9823 29.8235 28.9887 29.0798 29.7206C27.7636 31.0156 25.6532 31.0167 24.3358 29.7206C23.589 28.9857 22.4122 28.9843 21.6641 29.7206C20.3472 31.0163 18.2375 31.0168 16.9202 29.7206C16.171 28.9833 14.9973 28.9835 14.2483 29.7206C13.8187 30.1431 13.2676 30.454 12.6629 30.5985L10.4164 23.946ZM44.1816 36.0366C42.9277 37.6013 40.5991 37.745 39.1675 36.3365C38.4185 35.5995 37.2447 35.5994 36.4957 36.3365C35.1787 37.6321 33.0691 37.6327 31.7517 36.3365C31.0026 35.5995 29.8289 35.5995 29.0799 36.3365C27.763 37.6323 25.6533 37.6327 24.3359 36.3365C23.587 35.5995 22.4131 35.5995 21.6642 36.3365C20.3473 37.6322 18.2376 37.6327 16.9202 36.3365C16.1712 35.5994 14.9975 35.5994 14.2483 36.3365C12.9315 37.6322 10.8217 37.6327 9.50439 36.3365C8.75529 35.5994 7.5815 35.5994 6.83258 36.3365C5.40144 37.7446 3.0732 37.6019 1.81837 36.0358V31.1988C3.61777 32.4259 6.11627 32.2749 7.7572 30.6603C7.98783 30.4333 8.34924 30.4336 8.57969 30.6603C10.4215 32.4728 13.3548 32.4492 15.1729 30.6604C15.4035 30.4335 15.7647 30.4334 15.9955 30.6604C17.8257 32.4612 20.758 32.4618 22.5887 30.6604C22.8194 30.4335 23.1806 30.4335 23.4113 30.6604C25.2562 32.4758 28.189 32.4465 30.0046 30.6604C30.2242 30.4442 30.5799 30.4199 30.8363 30.669C31.7063 31.5209 32.8732 32.0103 34.1237 32.0103C35.3649 32.0103 36.5356 31.5309 37.4202 30.6605C37.6509 30.4336 38.0122 30.4335 38.2429 30.6605C39.8836 32.2746 42.3818 32.4263 44.1815 31.1989V36.0366H44.1816Z" fill="#4D7B7D"/>
</g>
<defs>
<clipPath id="clip0_5_289">
<rect width="45" height="45" fill="white" transform="translate(0.5 0.5)"/>
</clipPath>
</defs>
</svg>

<svg width="46" height="46" fill="none" xmlns="http://www.w3.org/2000/svg"><g clip-path="url(#a)" fill="#4D7B7D"><path d="M12.895 10.194a.66.66 0 0 0-.66.66v3.361a.66.66 0 0 0 1.319 0v-3.362a.66.66 0 0 0-.66-.659Zm7.579 0a.66.66 0 0 0-.66.66v.702a.66.66 0 0 0 1.319 0v-.703a.66.66 0 0 0-.66-.659Zm-2.527 0a.66.66 0 0 0-.659.66v1.589a.66.66 0 0 0 1.319 0v-1.59a.66.66 0 0 0-.66-.659Zm-2.526 0a.66.66 0 0 0-.659.66v2.475a.66.66 0 1 0 1.318 0v-2.476a.66.66 0 0 0-.659-.659Zm17.025.659v3.362a.66.66 0 1 0 1.318 0v-3.362a.66.66 0 1 0-1.318 0Zm-7.579 0v.703a.66.66 0 0 0 1.319 0v-.703a.66.66 0 1 0-1.319 0Zm2.526 0v1.59a.66.66 0 1 0 1.319 0v-1.59a.66.66 0 1 0-1.319 0Zm2.527 0v2.476a.66.66 0 0 0 1.318 0v-2.476a.66.66 0 1 0-1.318 0Z"/><path d="M43.911 29.72a3.38 3.38 0 0 1-4.743 0 1.89 1.89 0 0 0-2.672 0 3.36 3.36 0 0 1-1.781.92l3.415-10.113a1.45 1.45 0 0 0-.786-1.795l-1.053-.47v-3.556a.66.66 0 1 0-1.319 0v2.968l-8.867-3.956-2.355-1.05a1.951 1.951 0 0 0-.09-.038V8.568h11.02c.161 0 .292.131.292.293v2.769a.66.66 0 1 0 1.319 0V8.86c0-.888-.723-1.611-1.612-1.611h-1.673V2.473A1.975 1.975 0 0 0 31.033.5H14.809a1.975 1.975 0 0 0-1.973 1.973V7.25h-1.515c-.889 0-1.612.723-1.612 1.611v9.401l-1.052.47a1.45 1.45 0 0 0-.786 1.795l3.415 10.113a3.36 3.36 0 0 1-1.781-.92 1.89 1.89 0 0 0-2.672 0 3.38 3.38 0 0 1-4.744 0 .932.932 0 0 0-1.589.666v12.818A2.299 2.299 0 0 0 2.796 45.5h18.666a.66.66 0 1 0 0-1.318H2.796a.979.979 0 0 1-.978-.978V37.81a4.691 4.691 0 0 0 5.94-.534.582.582 0 0 1 .822 0 4.698 4.698 0 0 0 6.593 0 .582.582 0 0 1 .822 0 4.698 4.698 0 0 0 6.594 0 .582.582 0 0 1 .822 0 4.698 4.698 0 0 0 6.593 0 .582.582 0 0 1 .823 0 4.698 4.698 0 0 0 6.593 0 .582.582 0 0 1 .823 0 4.693 4.693 0 0 0 5.938.535v5.393a.978.978 0 0 1-.977.977H24.538a.66.66 0 0 0 0 1.319h18.666a2.299 2.299 0 0 0 2.296-2.296V30.386c0-.829-1-1.244-1.589-.665ZM14.154 2.474c0-.361.294-.655.655-.655h16.224c.36 0 .654.294.654.655v1.402H14.154V2.473Zm0 2.72h17.533V7.25H14.154V5.193Zm-3.126 3.668c0-.162.131-.293.293-.293h11.02v4.062l-.09.038h-.002l-11.221 5.006V8.861ZM9.12 20.105a.136.136 0 0 1 .074-.169c.339-.151 13.236-5.904 13.592-6.064l.02-.007a.524.524 0 0 1 .407.007l13.593 6.064a.137.137 0 0 1 .075.17l-.874 2.585-12.256-5.467a1.842 1.842 0 0 0-1.502 0L9.993 22.69l-.873-2.586Zm1.296 3.841 12.37-5.518a.525.525 0 0 1 .427 0l12.37 5.518-2.246 6.652a3.397 3.397 0 0 1-1.585-.877 1.894 1.894 0 0 0-2.672 0 3.381 3.381 0 0 1-4.744 0 1.893 1.893 0 0 0-2.672 0 3.38 3.38 0 0 1-4.744 0 1.89 1.89 0 0 0-2.672 0c-.43.422-.98.733-1.585.878l-2.247-6.653Zm33.766 12.09a3.382 3.382 0 0 1-5.015.3 1.89 1.89 0 0 0-2.671 0 3.38 3.38 0 0 1-4.744 0 1.89 1.89 0 0 0-2.672 0 3.38 3.38 0 0 1-4.744 0 1.89 1.89 0 0 0-2.672 0 3.38 3.38 0 0 1-4.744 0 1.89 1.89 0 0 0-2.672 0 3.38 3.38 0 0 1-4.744 0 1.89 1.89 0 0 0-2.671 0 3.382 3.382 0 0 1-5.015-.3v-4.837a4.7 4.7 0 0 0 5.94-.539.582.582 0 0 1 .822 0 4.699 4.699 0 0 0 6.593 0 .582.582 0 0 1 .822 0 4.698 4.698 0 0 0 6.594 0 .582.582 0 0 1 .822 0 4.699 4.699 0 0 0 6.594 0 .583.583 0 0 1 .831.009 4.68 4.68 0 0 0 3.288 1.341c1.24 0 2.412-.48 3.296-1.35a.582.582 0 0 1 .823 0 4.7 4.7 0 0 0 5.938.539v4.838Z"/></g><defs><clipPath id="a"><path fill="#fff" transform="translate(.5 .5)" d="M0 0h45v45H0z"/></clipPath></defs></svg>
